X:1
T:Schottische: Sorbet Shuffle
C:Andrew Swaine
M:2/2
L:1/8
N:originally in G
K:C
cd|"C"e3d cedc|"G"dedc B2"/e"G2|"F"A3B "C/e"c2ee|"Dm7"fedc "G7"d2cd|
"C"e3d cedc|"G"dedc B2"/e"G2|"F"A3B "Dm7"c2ee|"G7"dcBd "C"c2:|
K:Cm
cd|"Cm"e3d cedc|"Gm/b\b"dcde f2"/d"^f2|"E\b"g3f egfe|"Dm7"fffe "G7"dfed|
"Cm"e3d cedc|"Gm/b\b"dcde f2"/d"^f2|"E\b"g3f egfe|"G7"f=ed=B "C"c2:|
<end>
<start>
